X: 105
M:C|
L:1/8
K:Bb
uB>fd>B G>ec>A|B>cd>B F2 BA|\
|:(ucB)|A>cf>=e f>dc>B|A>cf>=e f2f2|\
=e>gb>g e>cd>e|f>=ef>e f2_e2|
d>ef>d B>cd>B|c>de>c A>Bc>A|\


